svgs/thin/square-nfi.svg

<svg xmlns="http://www.w3.org/2000/svg" viewBox="0 0 448 512"><!--! Font Awesome Pro 6.6.0 by @fontawesome - https://fontawesome.com License - https://fontawesome.com/license (Commercial License) Copyright 2024 Fonticons, Inc. --><path d="M64 48C37.5 48 16 69.5 16 96l0 320c0 26.5 21.5 48 48 48l320 0c26.5 0 48-21.5 48-48l0-320c0-26.5-21.5-48-48-48L64 48zM0 96C0 60.7 28.7 32 64 32l320 0c35.3 0 64 28.7 64 64l0 320c0 35.3-28.7 64-64 64L64 480c-35.3 0-64-28.7-64-64L0 96zm79 68.2l81 148.5L160 168c0-4.4 3.6-8 8-8s8 3.6 8 8l0 176c0 3.7-2.5 6.8-6 7.8s-7.2-.7-9-3.9L80 199.4 80 344c0 4.4-3.6 8-8 8s-8-3.6-8-8l0-176c0-3.7 2.5-6.8 6-7.8s7.2 .7 9 3.9zM240 160l72 0c4.4 0 8 3.6 8 8s-3.6 8-8 8l-64 0 0 48 64 0c4.4 0 8 3.6 8 8s-3.6 8-8 8l-64 0 0 104c0 4.4-3.6 8-8 8s-8-3.6-8-8l0-112 0-64c0-4.4 3.6-8 8-8zm144 8l0 176c0 4.4-3.6 8-8 8s-8-3.6-8-8l0-176c0-4.4 3.6-8 8-8s8 3.6 8 8z"/></svg>

<svg xmlns="http://www.w3.org/2000/svg" viewBox="0 0 448 512"><!--! Font Awesome Pro 6.4.2 by @fontawesome - https://fontawesome.com License - https://fontawesome.com/license (Commercial License) Copyright 2023 Fonticons, Inc. --><path d="M64 48C37.5 48 16 69.5 16 96V416c0 26.5 21.5 48 48 48H384c26.5 0 48-21.5 48-48V96c0-26.5-21.5-48-48-48H64zM0 96C0 60.7 28.7 32 64 32H384c35.3 0 64 28.7 64 64V416c0 35.3-28.7 64-64 64H64c-35.3 0-64-28.7-64-64V96zm79 68.2l81 148.5V168c0-4.4 3.6-8 8-8s8 3.6 8 8V344c0 3.7-2.5 6.8-6 7.8s-7.2-.7-9-3.9L80 199.4V344c0 4.4-3.6 8-8 8s-8-3.6-8-8V168c0-3.7 2.5-6.8 6-7.8s7.2 .7 9 3.9zM240 160h72c4.4 0 8 3.6 8 8s-3.6 8-8 8H248v48h64c4.4 0 8 3.6 8 8s-3.6 8-8 8H248V344c0 4.4-3.6 8-8 8s-8-3.6-8-8V232 168c0-4.4 3.6-8 8-8zm144 8V344c0 4.4-3.6 8-8 8s-8-3.6-8-8V168c0-4.4 3.6-8 8-8s8 3.6 8 8z"/></svg>
